images/50715585.svg

<?xml version="1.0" encoding="UTF-8"?>
<svg xmlns="http://www.w3.org/2000/svg" xmlns:xlink="http://www.w3.org/1999/xlink" width="300pt" height="300pt" viewBox="0 0 300 300" version="1.1">
<defs>
<g>
<symbol overflow="visible" id="glyph0-0">
<path style="stroke:none;" d="M 0.453125 1.59375 L 0.453125 -6.34375 L 4.953125 -6.34375 L 4.953125 1.59375 Z M 0.953125 1.09375 L 4.453125 1.09375 L 4.453125 -5.84375 L 0.953125 -5.84375 Z M 0.953125 1.09375 "/>
</symbol>
<symbol overflow="visible" id="glyph0-1">
<path style="stroke:none;" d="M 0.890625 -6.5625 L 4.65625 -6.5625 L 4.65625 -5.8125 L 1.765625 -5.8125 L 1.765625 -3.875 L 4.375 -3.875 L 4.375 -3.140625 L 1.765625 -3.140625 L 1.765625 0 L 0.890625 0 Z M 0.890625 -6.5625 "/>
</symbol>
<symbol overflow="visible" id="glyph0-2">
<path style="stroke:none;" d="M 0.890625 -6.5625 L 2.078125 -6.5625 L 4.984375 -1.078125 L 4.984375 -6.5625 L 5.84375 -6.5625 L 5.84375 0 L 4.65625 0 L 1.75 -5.484375 L 1.75 0 L 0.890625 0 Z M 0.890625 -6.5625 "/>
</symbol>
<symbol overflow="visible" id="glyph0-3">
<path style="stroke:none;" d="M 3.546875 -5.953125 C 2.898438 -5.953125 2.382812 -5.710938 2 -5.234375 C 1.625 -4.753906 1.4375 -4.101562 1.4375 -3.28125 C 1.4375 -2.445312 1.625 -1.789062 2 -1.3125 C 2.382812 -0.832031 2.898438 -0.59375 3.546875 -0.59375 C 4.191406 -0.59375 4.703125 -0.832031 5.078125 -1.3125 C 5.453125 -1.789062 5.640625 -2.445312 5.640625 -3.28125 C 5.640625 -4.101562 5.453125 -4.753906 5.078125 -5.234375 C 4.703125 -5.710938 4.191406 -5.953125 3.546875 -5.953125 Z M 3.546875 -6.6875 C 4.460938 -6.6875 5.195312 -6.375 5.75 -5.75 C 6.300781 -5.132812 6.578125 -4.3125 6.578125 -3.28125 C 6.578125 -2.238281 6.300781 -1.410156 5.75 -0.796875 C 5.195312 -0.179688 4.460938 0.125 3.546875 0.125 C 2.617188 0.125 1.878906 -0.179688 1.328125 -0.796875 C 0.773438 -1.410156 0.5 -2.238281 0.5 -3.28125 C 0.5 -4.3125 0.773438 -5.132812 1.328125 -5.75 C 1.878906 -6.375 2.617188 -6.6875 3.546875 -6.6875 Z M 3.546875 -6.6875 "/>
</symbol>
<symbol overflow="visible" id="glyph0-4">
<path style="stroke:none;" d="M 0.890625 -6.5625 L 1.765625 -6.5625 L 1.765625 -3.875 L 5 -3.875 L 5 -6.5625 L 5.890625 -6.5625 L 5.890625 0 L 5 0 L 5 -3.125 L 1.765625 -3.125 L 1.765625 0 L 0.890625 0 Z M 0.890625 -6.5625 "/>
</symbol>
</g>
</defs>
<g id="surface17313">
<rect x="0" y="0" width="300" height="300" style="fill:rgb(100%,100%,100%);fill-opacity:1;stroke:none;"/>
<path style="fill:none;stroke-width:1.2;stroke-linecap:butt;stroke-linejoin:miter;stroke:rgb(20%,80%,80%);stroke-opacity:1;stroke-miterlimit:10;" d="M 64.019531 197.566406 L 61.945312 186.949219 "/>
<path style="fill:none;stroke-width:1.2;stroke-linecap:butt;stroke-linejoin:miter;stroke:rgb(0%,0%,0%);stroke-opacity:1;stroke-miterlimit:10;" d="M 61.945312 186.949219 L 59.867188 176.332031 "/>
<path style=" stroke:none;fill-rule:nonzero;fill:rgb(100%,100%,100%);fill-opacity:1;" d="M 61.019531 192.066406 L 67.019531 192.066406 L 67.019531 203.066406 L 61.019531 203.066406 Z M 61.019531 192.066406 "/>
<g style="fill:rgb(20%,80%,80%);fill-opacity:1;">
  <use xlink:href="#glyph0-1" x="61.019531" y="200.729492"/>
</g>
<path style="fill:none;stroke-width:1.2;stroke-linecap:butt;stroke-linejoin:miter;stroke:rgb(0%,0%,0%);stroke-opacity:1;stroke-miterlimit:10;" d="M 59.867188 176.332031 L 39.402344 169.308594 "/>
<path style="fill:none;stroke-width:1.2;stroke-linecap:butt;stroke-linejoin:miter;stroke:rgb(0%,0%,0%);stroke-opacity:1;stroke-miterlimit:10;" d="M 59.476562 170.8125 L 43.101562 165.195312 "/>
<path style="fill:none;stroke-width:1.2;stroke-linecap:butt;stroke-linejoin:miter;stroke:rgb(0%,0%,0%);stroke-opacity:1;stroke-miterlimit:10;" d="M 76.183594 162.117188 L 59.867188 176.332031 "/>
<path style="fill:none;stroke-width:1.2;stroke-linecap:butt;stroke-linejoin:miter;stroke:rgb(0%,0%,0%);stroke-opacity:1;stroke-miterlimit:10;" d="M 39.402344 169.308594 L 35.25 148.074219 "/>
<path style="fill:none;stroke-width:1.2;stroke-linecap:butt;stroke-linejoin:miter;stroke:rgb(0%,0%,0%);stroke-opacity:1;stroke-miterlimit:10;" d="M 35.25 148.074219 L 51.566406 133.859375 "/>
<path style="fill:none;stroke-width:1.2;stroke-linecap:butt;stroke-linejoin:miter;stroke:rgb(0%,0%,0%);stroke-opacity:1;stroke-miterlimit:10;" d="M 40.226562 150.492188 L 53.277344 139.121094 "/>
<path style="fill:none;stroke-width:1.2;stroke-linecap:butt;stroke-linejoin:miter;stroke:rgb(0%,0%,0%);stroke-opacity:1;stroke-miterlimit:10;" d="M 51.566406 133.859375 L 72.03125 140.882812 "/>
<path style="fill:none;stroke-width:1.2;stroke-linecap:butt;stroke-linejoin:miter;stroke:rgb(0%,0%,0%);stroke-opacity:1;stroke-miterlimit:10;" d="M 72.03125 140.882812 L 80.191406 133.773438 "/>
<path style="fill:none;stroke-width:1.2;stroke-linecap:butt;stroke-linejoin:miter;stroke:rgb(20%,80%,80%);stroke-opacity:1;stroke-miterlimit:10;" d="M 80.191406 133.773438 L 88.347656 126.667969 "/>
<path style="fill:none;stroke-width:1.2;stroke-linecap:butt;stroke-linejoin:miter;stroke:rgb(0%,0%,0%);stroke-opacity:1;stroke-miterlimit:10;" d="M 72.03125 140.882812 L 76.183594 162.117188 "/>
<path style="fill:none;stroke-width:1.2;stroke-linecap:butt;stroke-linejoin:miter;stroke:rgb(0%,0%,0%);stroke-opacity:1;stroke-miterlimit:10;" d="M 67.449219 143.984375 L 70.773438 160.972656 "/>
<path style=" stroke:none;fill-rule:nonzero;fill:rgb(100%,100%,100%);fill-opacity:1;" d="M 85.347656 121.167969 L 91.347656 121.167969 L 91.347656 132.167969 L 85.347656 132.167969 Z M 85.347656 121.167969 "/>
<g style="fill:rgb(20%,80%,80%);fill-opacity:1;">
  <use xlink:href="#glyph0-1" x="85.347656" y="129.831055"/>
</g>
<path style="fill:none;stroke-width:1.2;stroke-linecap:butt;stroke-linejoin:miter;stroke:rgb(0%,0%,0%);stroke-opacity:1;stroke-miterlimit:10;" d="M 76.183594 162.117188 L 96.652344 169.140625 "/>
<path style="fill:none;stroke-width:1.2;stroke-linecap:butt;stroke-linejoin:miter;stroke:rgb(0%,0%,0%);stroke-opacity:1;stroke-miterlimit:10;" d="M 96.652344 169.140625 L 105.507812 162.925781 "/>
<path style="fill:none;stroke-width:1.2;stroke-linecap:butt;stroke-linejoin:miter;stroke:rgb(0%,0%,100%);stroke-opacity:1;stroke-miterlimit:10;" d="M 105.507812 162.925781 L 114.363281 156.710938 "/>
<path style="fill:none;stroke-width:1.2;stroke-linecap:butt;stroke-linejoin:miter;stroke:rgb(0%,0%,100%);stroke-opacity:1;stroke-miterlimit:10;" d="M 103 189.828125 L 99.824219 179.484375 "/>
<path style="fill:none;stroke-width:1.2;stroke-linecap:butt;stroke-linejoin:miter;stroke:rgb(0%,0%,0%);stroke-opacity:1;stroke-miterlimit:10;" d="M 99.824219 179.484375 L 96.652344 169.140625 "/>
<path style="fill:none;stroke-width:1.2;stroke-linecap:butt;stroke-linejoin:miter;stroke:rgb(0%,0%,100%);stroke-opacity:1;stroke-miterlimit:10;" d="M 107.234375 186.265625 L 104.691406 177.988281 "/>
<path style="fill:none;stroke-width:1.2;stroke-linecap:butt;stroke-linejoin:miter;stroke:rgb(0%,0%,0%);stroke-opacity:1;stroke-miterlimit:10;" d="M 104.691406 177.988281 L 102.152344 169.714844 "/>
<path style="fill:none;stroke-width:1.2;stroke-linecap:butt;stroke-linejoin:miter;stroke:rgb(0%,0%,100%);stroke-opacity:1;stroke-miterlimit:10;" d="M 114.363281 156.710938 L 116.976562 135.230469 "/>
<path style="fill:none;stroke-width:1.2;stroke-linecap:butt;stroke-linejoin:miter;stroke:rgb(0%,0%,0%);stroke-opacity:1;stroke-miterlimit:10;" d="M 131.65625 169.714844 L 123.011719 163.210938 "/>
<path style="fill:none;stroke-width:1.2;stroke-linecap:butt;stroke-linejoin:miter;stroke:rgb(0%,0%,100%);stroke-opacity:1;stroke-miterlimit:10;" d="M 123.011719 163.210938 L 114.363281 156.710938 "/>
<path style=" stroke:none;fill-rule:nonzero;fill:rgb(100%,100%,100%);fill-opacity:1;" d="M 111.363281 151.210938 L 118.363281 151.210938 L 118.363281 162.210938 L 111.363281 162.210938 Z M 111.363281 151.210938 "/>
<g style="fill:rgb(0%,0%,100%);fill-opacity:1;">
  <use xlink:href="#glyph0-2" x="111.363281" y="159.874023"/>
</g>
<path style="fill:none;stroke-width:1.2;stroke-linecap:butt;stroke-linejoin:miter;stroke:rgb(0%,0%,100%);stroke-opacity:1;stroke-miterlimit:10;" d="M 116.976562 135.230469 L 108.328125 128.730469 "/>
<path style="fill:none;stroke-width:1.2;stroke-linecap:butt;stroke-linejoin:miter;stroke:rgb(0%,0%,0%);stroke-opacity:1;stroke-miterlimit:10;" d="M 108.328125 128.730469 L 99.679688 122.226562 "/>
<path style="fill:none;stroke-width:1.2;stroke-linecap:butt;stroke-linejoin:miter;stroke:rgb(0%,0%,100%);stroke-opacity:1;stroke-miterlimit:10;" d="M 116.976562 135.230469 L 126.929688 130.992188 "/>
<path style="fill:none;stroke-width:1.2;stroke-linecap:butt;stroke-linejoin:miter;stroke:rgb(0%,0%,0%);stroke-opacity:1;stroke-miterlimit:10;" d="M 126.929688 130.992188 L 136.886719 126.753906 "/>
<path style=" stroke:none;fill-rule:nonzero;fill:rgb(100%,100%,100%);fill-opacity:1;" d="M 113.976562 129.730469 L 120.976562 129.730469 L 120.976562 140.730469 L 113.976562 140.730469 Z M 113.976562 129.730469 "/>
<g style="fill:rgb(0%,0%,100%);fill-opacity:1;">
  <use xlink:href="#glyph0-2" x="113.976562" y="138.393555"/>
</g>
<path style="fill:none;stroke-width:1.2;stroke-linecap:butt;stroke-linejoin:miter;stroke:rgb(0%,0%,0%);stroke-opacity:1;stroke-miterlimit:10;" d="M 99.679688 122.226562 L 102.292969 100.746094 "/>
<path style="fill:none;stroke-width:1.2;stroke-linecap:butt;stroke-linejoin:miter;stroke:rgb(0%,0%,0%);stroke-opacity:1;stroke-miterlimit:10;" d="M 139.410156 127.0625 L 140.71875 116.320312 "/>
<path style="fill:none;stroke-width:1.2;stroke-linecap:butt;stroke-linejoin:miter;stroke:rgb(100%,0%,0%);stroke-opacity:1;stroke-miterlimit:10;" d="M 140.71875 116.320312 L 142.027344 105.582031 "/>
<path style="fill:none;stroke-width:1.2;stroke-linecap:butt;stroke-linejoin:miter;stroke:rgb(0%,0%,0%);stroke-opacity:1;stroke-miterlimit:10;" d="M 134.359375 126.445312 L 135.664062 115.707031 "/>
<path style="fill:none;stroke-width:1.2;stroke-linecap:butt;stroke-linejoin:miter;stroke:rgb(100%,0%,0%);stroke-opacity:1;stroke-miterlimit:10;" d="M 135.664062 115.707031 L 136.972656 104.964844 "/>
<path style="fill:none;stroke-width:1.2;stroke-linecap:butt;stroke-linejoin:miter;stroke:rgb(0%,0%,0%);stroke-opacity:1;stroke-miterlimit:10;" d="M 136.886719 126.753906 L 154.179688 139.757812 "/>
<path style=" stroke:none;fill-rule:nonzero;fill:rgb(100%,100%,100%);fill-opacity:1;" d="M 135.5 99.773438 L 143.5 99.773438 L 143.5 110.773438 L 135.5 110.773438 Z M 135.5 99.773438 "/>
<g style="fill:rgb(100%,0%,0%);fill-opacity:1;">
  <use xlink:href="#glyph0-3" x="135.5" y="108.436523"/>
</g>
<path style="fill:none;stroke-width:1.2;stroke-linecap:butt;stroke-linejoin:miter;stroke:rgb(0%,0%,0%);stroke-opacity:1;stroke-miterlimit:10;" d="M 154.179688 139.757812 L 151.566406 161.238281 "/>
<path style="fill:none;stroke-width:1.2;stroke-linecap:butt;stroke-linejoin:miter;stroke:rgb(0%,0%,0%);stroke-opacity:1;stroke-miterlimit:10;" d="M 148.863281 141.289062 L 146.773438 158.472656 "/>
<path style="fill:none;stroke-width:1.2;stroke-linecap:butt;stroke-linejoin:miter;stroke:rgb(0%,0%,0%);stroke-opacity:1;stroke-miterlimit:10;" d="M 154.179688 139.757812 L 174.089844 131.28125 "/>
<path style="fill:none;stroke-width:1.2;stroke-linecap:butt;stroke-linejoin:miter;stroke:rgb(0%,0%,0%);stroke-opacity:1;stroke-miterlimit:10;" d="M 151.566406 161.238281 L 131.65625 169.714844 "/>
<path style="fill:none;stroke-width:1.2;stroke-linecap:butt;stroke-linejoin:miter;stroke:rgb(0%,0%,0%);stroke-opacity:1;stroke-miterlimit:10;" d="M 131.65625 169.714844 L 128.148438 179.945312 "/>
<path style="fill:none;stroke-width:1.2;stroke-linecap:butt;stroke-linejoin:miter;stroke:rgb(0%,0%,100%);stroke-opacity:1;stroke-miterlimit:10;" d="M 128.148438 179.945312 L 124.636719 190.179688 "/>
<path style="fill:none;stroke-width:1.2;stroke-linecap:butt;stroke-linejoin:miter;stroke:rgb(0%,0%,0%);stroke-opacity:1;stroke-miterlimit:10;" d="M 126.140625 170.109375 L 123.332031 178.292969 "/>
<path style="fill:none;stroke-width:1.2;stroke-linecap:butt;stroke-linejoin:miter;stroke:rgb(0%,0%,100%);stroke-opacity:1;stroke-miterlimit:10;" d="M 123.332031 178.292969 L 120.523438 186.480469 "/>
<path style="fill:none;stroke-width:1.2;stroke-linecap:butt;stroke-linejoin:miter;stroke:rgb(0%,0%,100%);stroke-opacity:1;stroke-miterlimit:10;" d="M 124.636719 190.179688 L 103 189.828125 "/>
<path style=" stroke:none;fill-rule:nonzero;fill:rgb(100%,100%,100%);fill-opacity:1;" d="M 121.636719 184.679688 L 128.636719 184.679688 L 128.636719 195.679688 L 121.636719 195.679688 Z M 121.636719 184.679688 "/>
<g style="fill:rgb(0%,0%,100%);fill-opacity:1;">
  <use xlink:href="#glyph0-2" x="121.636719" y="193.342773"/>
</g>
<path style=" stroke:none;fill-rule:nonzero;fill:rgb(100%,100%,100%);fill-opacity:1;" d="M 100 184.328125 L 107 184.328125 L 107 195.328125 L 100 195.328125 Z M 100 184.328125 "/>
<g style="fill:rgb(0%,0%,100%);fill-opacity:1;">
  <use xlink:href="#glyph0-2" x="100" y="192.991211"/>
</g>
<path style="fill:none;stroke-width:1.2;stroke-linecap:butt;stroke-linejoin:miter;stroke:rgb(0%,0%,0%);stroke-opacity:1;stroke-miterlimit:10;" d="M 174.089844 131.28125 L 191.382812 144.285156 "/>
<path style="fill:none;stroke-width:1.2;stroke-linecap:butt;stroke-linejoin:miter;stroke:rgb(0%,0%,0%);stroke-opacity:1;stroke-miterlimit:10;" d="M 178.878906 128.511719 L 192.714844 138.914062 "/>
<path style="fill:none;stroke-width:1.2;stroke-linecap:butt;stroke-linejoin:miter;stroke:rgb(0%,0%,0%);stroke-opacity:1;stroke-miterlimit:10;" d="M 176.703125 109.800781 L 174.089844 131.28125 "/>
<path style="fill:none;stroke-width:1.2;stroke-linecap:butt;stroke-linejoin:miter;stroke:rgb(0%,0%,0%);stroke-opacity:1;stroke-miterlimit:10;" d="M 191.382812 144.285156 L 211.292969 135.808594 "/>
<path style="fill:none;stroke-width:1.2;stroke-linecap:butt;stroke-linejoin:miter;stroke:rgb(0%,0%,0%);stroke-opacity:1;stroke-miterlimit:10;" d="M 211.292969 135.808594 L 213.90625 114.328125 "/>
<path style="fill:none;stroke-width:1.2;stroke-linecap:butt;stroke-linejoin:miter;stroke:rgb(0%,0%,0%);stroke-opacity:1;stroke-miterlimit:10;" d="M 206.5 133.042969 L 208.589844 115.859375 "/>
<path style="fill:none;stroke-width:1.2;stroke-linecap:butt;stroke-linejoin:miter;stroke:rgb(0%,0%,0%);stroke-opacity:1;stroke-miterlimit:10;" d="M 211.292969 135.808594 L 228.589844 148.8125 "/>
<path style="fill:none;stroke-width:1.2;stroke-linecap:butt;stroke-linejoin:miter;stroke:rgb(0%,0%,0%);stroke-opacity:1;stroke-miterlimit:10;" d="M 213.90625 114.328125 L 196.613281 101.324219 "/>
<path style="fill:none;stroke-width:1.2;stroke-linecap:butt;stroke-linejoin:miter;stroke:rgb(0%,0%,0%);stroke-opacity:1;stroke-miterlimit:10;" d="M 196.613281 101.324219 L 176.703125 109.800781 "/>
<path style="fill:none;stroke-width:1.2;stroke-linecap:butt;stroke-linejoin:miter;stroke:rgb(0%,0%,0%);stroke-opacity:1;stroke-miterlimit:10;" d="M 196.613281 106.855469 L 180.6875 113.636719 "/>
<path style="fill:none;stroke-width:1.2;stroke-linecap:butt;stroke-linejoin:miter;stroke:rgb(0%,0%,0%);stroke-opacity:1;stroke-miterlimit:10;" d="M 176.703125 109.800781 L 159.40625 96.796875 "/>
<path style="fill:none;stroke-width:1.2;stroke-linecap:butt;stroke-linejoin:miter;stroke:rgb(0%,0%,0%);stroke-opacity:1;stroke-miterlimit:10;" d="M 229.585938 151.152344 L 239.539062 146.914062 "/>
<path style="fill:none;stroke-width:1.2;stroke-linecap:butt;stroke-linejoin:miter;stroke:rgb(100%,0%,0%);stroke-opacity:1;stroke-miterlimit:10;" d="M 239.539062 146.914062 L 249.496094 142.675781 "/>
<path style="fill:none;stroke-width:1.2;stroke-linecap:butt;stroke-linejoin:miter;stroke:rgb(0%,0%,0%);stroke-opacity:1;stroke-miterlimit:10;" d="M 227.589844 146.46875 L 237.546875 142.230469 "/>
<path style="fill:none;stroke-width:1.2;stroke-linecap:butt;stroke-linejoin:miter;stroke:rgb(100%,0%,0%);stroke-opacity:1;stroke-miterlimit:10;" d="M 237.546875 142.230469 L 247.5 137.992188 "/>
<path style="fill:none;stroke-width:1.2;stroke-linecap:butt;stroke-linejoin:miter;stroke:rgb(0%,0%,0%);stroke-opacity:1;stroke-miterlimit:10;" d="M 228.589844 148.8125 L 227.28125 159.550781 "/>
<path style="fill:none;stroke-width:1.2;stroke-linecap:butt;stroke-linejoin:miter;stroke:rgb(0%,0%,100%);stroke-opacity:1;stroke-miterlimit:10;" d="M 227.28125 159.550781 L 225.976562 170.289062 "/>
<path style=" stroke:none;fill-rule:nonzero;fill:rgb(100%,100%,100%);fill-opacity:1;" d="M 244.496094 134.835938 L 252.496094 134.835938 L 252.496094 145.835938 L 244.496094 145.835938 Z M 244.496094 134.835938 "/>
<g style="fill:rgb(100%,0%,0%);fill-opacity:1;">
  <use xlink:href="#glyph0-3" x="244.496094" y="143.499023"/>
</g>
<path style="fill:none;stroke-width:1.2;stroke-linecap:butt;stroke-linejoin:miter;stroke:rgb(0%,0%,100%);stroke-opacity:1;stroke-miterlimit:10;" d="M 225.976562 170.289062 L 234.621094 176.792969 "/>
<path style="fill:none;stroke-width:1.2;stroke-linecap:butt;stroke-linejoin:miter;stroke:rgb(0%,0%,0%);stroke-opacity:1;stroke-miterlimit:10;" d="M 234.621094 176.792969 L 243.269531 183.292969 "/>
<path style=" stroke:none;fill-rule:nonzero;fill:rgb(100%,100%,100%);fill-opacity:1;" d="M 218.976562 164.789062 L 232.976562 164.789062 L 232.976562 175.789062 L 218.976562 175.789062 Z M 218.976562 164.789062 "/>
<g style="fill:rgb(0%,0%,100%);fill-opacity:1;">
  <use xlink:href="#glyph0-2" x="218.976562" y="173.452148"/>
  <use xlink:href="#glyph0-4" x="225.954102" y="173.452148"/>
</g>
<path style="fill:none;stroke-width:1.2;stroke-linecap:butt;stroke-linejoin:miter;stroke:rgb(0%,0%,0%);stroke-opacity:1;stroke-miterlimit:10;" d="M 243.269531 183.292969 L 264.75 185.90625 "/>
<path style="fill:none;stroke-width:1.2;stroke-linecap:butt;stroke-linejoin:miter;stroke:rgb(0%,0%,0%);stroke-opacity:1;stroke-miterlimit:10;" d="M 251.746094 203.203125 L 243.269531 183.292969 "/>
<path style="fill:none;stroke-width:1.2;stroke-linecap:butt;stroke-linejoin:miter;stroke:rgb(0%,0%,0%);stroke-opacity:1;stroke-miterlimit:10;" d="M 264.75 185.90625 L 251.746094 203.203125 "/>
</g>
</svg>

<svg xmlns="http://www.w3.org/2000/svg" xmlns:xlink="http://www.w3.org/1999/xlink" width="300pt" height="300pt" viewBox="0 0 300 300"><defs><symbol overflow="visible"><path d="M.453 1.594v-7.938h4.5v7.938zm.5-.5h3.5v-6.938h-3.5zm0 0"/></symbol><symbol overflow="visible" id="a"><path d="M.89-6.563h3.766v.75h-2.89v1.938h2.61v.734h-2.61V0H.89zm0 0"/></symbol><symbol overflow="visible" id="b"><path d="M.89-6.563H2.08l2.906 5.485v-5.484h.86V0H4.656L1.75-5.484V0H.89zm0 0"/></symbol><symbol overflow="visible" id="c"><path d="M3.547-5.953c-.65 0-1.164.242-1.547.72-.375.48-.563 1.13-.563 1.952 0 .835.188 1.49.563 1.967.383.48.898.72 1.547.72.644 0 1.156-.24 1.53-.72.376-.476.564-1.132.564-1.968 0-.822-.187-1.474-.562-1.954-.375-.477-.887-.72-1.53-.72zm0-.734c.914 0 1.648.312 2.203.937.55.617.828 1.438.828 2.47 0 1.042-.277 1.87-.828 2.483-.555.617-1.29.922-2.203.922-.93 0-1.668-.305-2.22-.922C.774-1.41.5-2.237.5-3.28c0-1.033.273-1.853.828-2.47.55-.625 1.29-.938 2.22-.938zm0 0"/></symbol><symbol overflow="visible" id="d"><path d="M.89-6.563h.876v2.688H5v-2.688h.89V0H5v-3.125H1.766V0H.89zm0 0"/></symbol></defs><g><path fill="#fff" d="M0 0h300v300H0z"/><path d="M64.02 197.566l-2.075-10.617" stroke-width="1.2" stroke="#3cc" stroke-miterlimit="10" fill="none"/><path d="M61.945 186.95l-2.078-10.618" stroke-width="1.2" stroke="#000" stroke-miterlimit="10" fill="none"/><path d="M61.02 192.066h6v11h-6zm0 0" fill="#fff"/><use xlink:href="#a" x="61.02" y="200.729" fill="#3cc"/><path d="M59.867 176.332l-20.465-7.023M59.477 170.813l-16.375-5.618M76.184 162.117l-16.317 14.215M39.402 169.31l-4.152-21.236M35.25 148.074l16.316-14.215M40.227 150.492l13.05-11.37M51.566 133.86l20.465 7.023M72.03 140.883l8.16-7.11" stroke-width="1.2" stroke="#000" stroke-miterlimit="10" fill="none"/><path d="M80.19 133.773l8.158-7.105" stroke-width="1.2" stroke="#3cc" stroke-miterlimit="10" fill="none"/><path d="M72.03 140.883l4.154 21.234M67.45 143.984l3.323 16.99" stroke-width="1.2" stroke="#000" stroke-miterlimit="10" fill="none"/><path d="M85.348 121.168h6v11h-6zm0 0" fill="#fff"/><use xlink:href="#a" x="85.348" y="129.831" fill="#3cc"/><path d="M76.184 162.117l20.468 7.024M96.652 169.14l8.856-6.214" stroke-width="1.2" stroke="#000" stroke-miterlimit="10" fill="none"/><path d="M105.508 162.926l8.855-6.215M103 189.828l-3.176-10.344" stroke-width="1.2" stroke="#00f" stroke-miterlimit="10" fill="none"/><path d="M99.824 179.484l-3.172-10.343" stroke-width="1.2" stroke="#000" stroke-miterlimit="10" fill="none"/><path d="M107.234 186.266l-2.543-8.278" stroke-width="1.2" stroke="#00f" stroke-miterlimit="10" fill="none"/><path d="M104.69 177.988l-2.538-8.273" stroke-width="1.2" stroke="#000" stroke-miterlimit="10" fill="none"/><path d="M114.363 156.71l2.614-21.48" stroke-width="1.2" stroke="#00f" stroke-miterlimit="10" fill="none"/><path d="M131.656 169.715l-8.644-6.504" stroke-width="1.2" stroke="#000" stroke-miterlimit="10" fill="none"/><path d="M123.012 163.21l-8.65-6.5" stroke-width="1.2" stroke="#00f" stroke-miterlimit="10" fill="none"/><path d="M111.363 151.21h7v11h-7zm0 0" fill="#fff"/><use xlink:href="#b" x="111.363" y="159.874" fill="#00f"/><path d="M116.977 135.23l-8.65-6.5" stroke-width="1.2" stroke="#00f" stroke-miterlimit="10" fill="none"/><path d="M108.328 128.73l-8.648-6.503" stroke-width="1.2" stroke="#000" stroke-miterlimit="10" fill="none"/><path d="M116.977 135.23l9.953-4.238" stroke-width="1.2" stroke="#00f" stroke-miterlimit="10" fill="none"/><path d="M126.93 130.992l9.957-4.238" stroke-width="1.2" stroke="#000" stroke-miterlimit="10" fill="none"/><path d="M113.977 129.73h7v11h-7zm0 0" fill="#fff"/><use xlink:href="#b" x="113.977" y="138.394" fill="#00f"/><path d="M99.68 122.227l2.613-21.48M139.41 127.063l1.31-10.743" stroke-width="1.2" stroke="#000" stroke-miterlimit="10" fill="none"/><path d="M140.72 116.32l1.307-10.738" stroke-width="1.2" stroke="#f00" stroke-miterlimit="10" fill="none"/><path d="M134.36 126.445l1.304-10.738" stroke-width="1.2" stroke="#000" stroke-miterlimit="10" fill="none"/><path d="M135.664 115.707l1.31-10.742" stroke-width="1.2" stroke="#f00" stroke-miterlimit="10" fill="none"/><path d="M136.887 126.754l17.293 13.004" stroke-width="1.2" stroke="#000" stroke-miterlimit="10" fill="none"/><path d="M135.5 99.773h8v11h-8zm0 0" fill="#fff"/><use xlink:href="#c" x="135.5" y="108.437" fill="#f00"/><path d="M154.18 139.758l-2.614 21.48M148.863 141.29l-2.09 17.183M154.18 139.758l19.91-8.477M151.566 161.238l-19.91 8.477M131.656 169.715l-3.508 10.23" stroke-width="1.2" stroke="#000" stroke-miterlimit="10" fill="none"/><path d="M128.148 179.945l-3.51 10.235" stroke-width="1.2" stroke="#00f" stroke-miterlimit="10" fill="none"/><path d="M126.14 170.11l-2.808 8.183" stroke-width="1.2" stroke="#000" stroke-miterlimit="10" fill="none"/><path d="M123.332 178.293l-2.81 8.187M124.637 190.18L103 189.828" stroke-width="1.2" stroke="#00f" stroke-miterlimit="10" fill="none"/><path d="M121.637 184.68h7v11h-7zm0 0" fill="#fff"/><use xlink:href="#b" x="121.637" y="193.343" fill="#00f"/><path d="M100 184.328h7v11h-7zm0 0" fill="#fff"/><use xlink:href="#b" x="100" y="192.991" fill="#00f"/><path d="M174.09 131.28l17.293 13.005M178.88 128.512l13.835 10.402M176.703 109.8l-2.613 21.48M191.383 144.285l19.91-8.476M211.293 135.81l2.613-21.482M206.5 133.043l2.09-17.184M211.293 135.81l17.297 13.002M213.906 114.328l-17.293-13.004M196.613 101.324l-19.91 8.477M196.613 106.855l-15.925 6.782M176.703 109.8l-17.297-13.003M229.586 151.152l9.953-4.238" stroke-width="1.2" stroke="#000" stroke-miterlimit="10" fill="none"/><path d="M239.54 146.914l9.956-4.238" stroke-width="1.2" stroke="#f00" stroke-miterlimit="10" fill="none"/><path d="M227.59 146.47l9.957-4.24" stroke-width="1.2" stroke="#000" stroke-miterlimit="10" fill="none"/><path d="M237.547 142.23l9.953-4.238" stroke-width="1.2" stroke="#f00" stroke-miterlimit="10" fill="none"/><path d="M228.59 148.813l-1.31 10.738" stroke-width="1.2" stroke="#000" stroke-miterlimit="10" fill="none"/><path d="M227.28 159.55l-1.303 10.74" stroke-width="1.2" stroke="#00f" stroke-miterlimit="10" fill="none"/><path d="M244.496 134.836h8v11h-8zm0 0" fill="#fff"/><use xlink:href="#c" x="244.496" y="143.499" fill="#f00"/><path d="M225.977 170.29l8.644 6.503" stroke-width="1.2" stroke="#00f" stroke-miterlimit="10" fill="none"/><path d="M234.62 176.793l8.65 6.5" stroke-width="1.2" stroke="#000" stroke-miterlimit="10" fill="none"/><path d="M218.977 164.79h14v11h-14zm0 0" fill="#fff"/><g fill="#00f"><use xlink:href="#b" x="218.977" y="173.452"/><use xlink:href="#d" x="225.954" y="173.452"/></g><path d="M243.27 183.293l21.48 2.613M251.746 203.203l-8.476-19.91M264.75 185.906l-13.004 17.297" stroke-width="1.2" stroke="#000" stroke-miterlimit="10" fill="none"/></g></svg>
